public/assets/treehouse_gray.svg

<svg width="136" height="34" viewBox="0 0 136 34" fill="none" xmlns="http://www.w3.org/2000/svg">
<path d="M135.025 25.9986C135.327 25.9986 135.559 26.1378 135.721 26.4162C135.907 26.6947 136 27.0775 136 27.5648C136 28.4001 135.802 29.1193 135.408 29.7226C134.758 30.7203 133.9 31.4976 132.832 32.0545C131.788 32.6113 130.535 32.8898 129.074 32.8898C126.846 32.8898 125.118 32.2285 123.888 30.9059C122.658 29.5602 122.043 27.7504 122.043 25.4765C122.043 23.8755 122.38 22.3906 123.053 21.0216C123.725 19.6294 124.653 18.5273 125.837 17.7152C127.043 16.9031 128.401 16.4971 129.909 16.4971C131.255 16.4971 132.334 16.9031 133.146 17.7152C133.958 18.5041 134.364 19.583 134.364 20.952C134.364 22.553 133.784 23.9335 132.624 25.0937C131.487 26.2306 129.538 27.1355 126.777 27.8084C127.333 28.8757 128.273 29.4094 129.596 29.4094C130.547 29.4094 131.324 29.1889 131.928 28.7481C132.554 28.3072 133.273 27.5648 134.085 26.5206C134.364 26.1726 134.677 25.9986 135.025 25.9986ZM129.317 19.9079C128.459 19.9079 127.728 20.4067 127.125 21.4044C126.545 22.4022 126.254 23.6087 126.254 25.0241V25.0937C127.623 24.7688 128.702 24.2816 129.491 23.6319C130.28 22.9822 130.675 22.2281 130.675 21.3696C130.675 20.9288 130.547 20.5807 130.292 20.3255C130.06 20.0471 129.735 19.9079 129.317 19.9079Z" fill="#DEDEDE"/>
<path d="M114.187 33.6555C112.981 33.6555 112.053 33.3771 111.403 32.8202C110.776 32.2633 110.463 31.6369 110.463 30.9408C110.463 30.3375 110.684 29.8154 111.124 29.3746C111.565 28.9337 112.215 28.7133 113.073 28.7133C113.375 28.7133 113.723 28.7481 114.118 28.8177C114.535 28.8641 114.848 28.8989 115.057 28.9221C115.034 28.3189 114.895 27.7504 114.64 27.2167C114.408 26.6831 114.106 26.1726 113.735 25.6854C113.363 25.1749 113.015 24.7341 112.691 24.3628C111.971 25.7318 111.252 26.8687 110.533 27.7736C109.837 28.6785 109.071 29.537 108.236 30.3491C107.818 30.7668 107.377 30.9756 106.913 30.9756C106.542 30.9756 106.24 30.848 106.008 30.5927C105.776 30.3143 105.66 29.9779 105.66 29.5834C105.66 29.1194 105.823 28.6901 106.147 28.2957L106.6 27.7388C107.876 26.161 108.839 24.8617 109.489 23.8408C109.883 23.1679 110.347 22.2746 110.881 21.1608C111.414 20.0239 111.936 18.8522 112.447 17.6456C112.888 16.6247 113.804 16.1143 115.196 16.1143C115.846 16.1143 116.299 16.1723 116.554 16.2883C116.809 16.4043 116.937 16.5899 116.937 16.8451C116.937 16.9844 116.89 17.2048 116.797 17.5064C116.705 17.8081 116.577 18.1097 116.415 18.4113C115.997 19.2466 115.788 19.9543 115.788 20.5344C115.788 20.8824 115.904 21.2653 116.136 21.6829C116.391 22.1006 116.774 22.6226 117.285 23.2491C118.027 24.2236 118.584 25.0589 118.955 25.755C119.35 26.4279 119.547 27.1703 119.547 27.9824C119.547 28.2145 119.524 28.5393 119.477 28.9569C120.614 28.5161 121.948 27.3444 123.48 25.4417C123.758 25.1169 124.071 24.9545 124.42 24.9545C124.721 24.9545 124.953 25.0937 125.116 25.3721C125.301 25.6506 125.394 26.0334 125.394 26.5207C125.394 27.4024 125.174 28.1217 124.733 28.6785C123.573 30.1171 122.459 31.1032 121.392 31.6369C120.347 32.1473 119.048 32.4258 117.494 32.4722C116.565 33.2611 115.463 33.6555 114.187 33.6555Z" fill="#DEDEDE"/>
<path d="M95.1877 32.8898C94.1436 32.8898 93.2851 32.4141 92.6122 31.4628C91.9625 30.4883 91.6377 29.2818 91.6377 27.8432C91.6377 26.103 91.7537 24.5136 91.9857 23.075C92.2178 21.6133 92.6006 20.0703 93.1343 18.4461C93.3663 17.75 93.6911 17.2512 94.1088 16.9495C94.5264 16.6479 95.1877 16.4971 96.0926 16.4971C96.6031 16.4971 96.9511 16.5783 97.1367 16.7407C97.3456 16.9031 97.45 17.1467 97.45 17.4716C97.45 17.6572 97.3224 18.2837 97.0671 19.351C96.8351 20.2095 96.6495 20.9868 96.5103 21.6829C96.0462 24.1192 95.8142 25.7433 95.8142 26.5554C95.8142 27.0427 95.8722 27.3907 95.9882 27.5996C96.1042 27.7852 96.2898 27.878 96.5451 27.878C96.8931 27.878 97.3224 27.53 97.8328 26.8339C98.3665 26.1378 98.9233 25.0821 99.5034 23.6667C100.107 22.2513 100.687 20.5111 101.244 18.4461C101.429 17.75 101.708 17.2512 102.079 16.9495C102.473 16.6479 103.053 16.4971 103.819 16.4971C104.353 16.4971 104.724 16.5667 104.933 16.7059C105.142 16.8219 105.246 17.0539 105.246 17.402C105.246 17.982 104.956 19.5714 104.376 22.1701C103.726 25.1401 103.401 26.9731 103.401 27.6692C103.401 28.11 103.494 28.4581 103.68 28.7133C103.866 28.9453 104.109 29.0613 104.411 29.0613C104.875 29.0613 105.42 28.7829 106.047 28.226C106.696 27.646 107.555 26.7179 108.622 25.4417C108.901 25.1169 109.214 24.9545 109.562 24.9545C109.863 24.9545 110.095 25.0937 110.258 25.3721C110.443 25.6505 110.536 26.0334 110.536 26.5206C110.536 27.4487 110.316 28.168 109.875 28.6785C108.877 29.9082 107.798 30.9175 106.638 31.7064C105.501 32.4953 104.202 32.8898 102.74 32.8898C101.626 32.8898 100.803 32.4605 100.269 31.602C99.7586 30.7435 99.5034 29.537 99.5034 27.9824C99.109 29.5602 98.5173 30.7783 97.7284 31.6368C96.9395 32.4721 96.0926 32.8898 95.1877 32.8898Z" fill="#DEDEDE"/>
<path d="M93.6842 22.0306C93.9859 22.0306 94.2179 22.1814 94.3803 22.483C94.5427 22.7846 94.6239 23.1675 94.6239 23.6315C94.6239 24.7453 94.2875 25.4066 93.6146 25.6154C92.2225 26.1026 90.6911 26.3811 89.0205 26.4507C88.5796 28.3997 87.7095 29.9659 86.4102 31.1492C85.1108 32.3094 83.6375 32.8894 81.9901 32.8894C80.5979 32.8894 79.403 32.553 78.4053 31.8801C77.4307 31.2072 76.6883 30.3139 76.1778 29.2002C75.6673 28.0865 75.4121 26.8799 75.4121 25.5806C75.4121 23.8172 75.7486 22.251 76.4214 20.882C77.0943 19.4899 78.0224 18.4109 79.2058 17.6452C80.3891 16.8564 81.7 16.4619 83.1386 16.4619C84.902 16.4619 86.3174 17.0768 87.3847 18.3065C88.4752 19.5131 89.1133 21.0096 89.2989 22.7962C90.3895 22.7266 91.6888 22.4946 93.197 22.1002C93.3826 22.0538 93.545 22.0306 93.6842 22.0306ZM82.2685 29.2002C83.011 29.2002 83.6491 28.8986 84.1827 28.2953C84.7396 27.692 85.1108 26.8219 85.2965 25.685C84.5772 25.1977 84.0203 24.5597 83.6259 23.7708C83.2546 22.9819 83.069 22.1466 83.069 21.2649C83.069 20.8936 83.1038 20.5224 83.1734 20.1511H82.9994C82.0713 20.1511 81.294 20.6036 80.6675 21.5085C80.0643 22.3902 79.7626 23.6431 79.7626 25.2673C79.7626 26.5435 80.0062 27.518 80.4935 28.1909C81.004 28.8638 81.5956 29.2002 82.2685 29.2002Z" fill="#DEDEDE"/>
<path d="M77.7809 24.9545C78.0825 24.9545 78.3146 25.0937 78.477 25.3721C78.6626 25.6506 78.7554 26.0334 78.7554 26.5207C78.7554 27.4488 78.535 28.1681 78.0941 28.6785C77.0268 29.9083 75.9247 30.9176 74.7878 31.7065C73.674 32.4954 72.3979 32.8898 70.9593 32.8898C69.776 32.8898 68.8827 32.5534 68.2794 31.8805C67.6761 31.1844 67.3745 30.1867 67.3745 28.8874C67.3745 28.2377 67.5369 27.0775 67.8617 25.407C68.1634 23.9452 68.3142 22.9359 68.3142 22.379C68.3142 22.0078 68.1866 21.8221 67.9314 21.8221C67.6297 21.8221 67.2005 22.2166 66.6436 23.0055C66.0867 23.7712 65.5299 24.7921 64.973 26.0682C64.4161 27.3444 63.9637 28.6901 63.6157 30.1055C63.1748 31.9617 62.0843 32.8898 60.3441 32.8898C59.648 32.8898 59.1839 32.6462 58.9519 32.1589C58.7431 31.6485 58.6387 30.7436 58.6387 29.4442C58.6387 28.7017 58.6503 28.1101 58.6735 27.6692L58.7083 24.8849C58.7083 21.3117 59.0679 17.5876 59.7872 13.7128C60.5297 9.83794 61.6086 6.58957 63.024 3.96766C64.4625 1.32255 66.1796 0 68.175 0C69.2423 0 70.1008 0.464054 70.7505 1.39216C71.4234 2.29707 71.7598 3.4804 71.7598 4.94217C71.7598 7.28565 71.0753 9.72193 69.7064 12.251C68.3374 14.7569 66.1099 17.6921 63.024 21.0564C62.9544 22.263 62.9196 23.5043 62.9196 24.7805C63.6853 22.8083 64.5322 21.2073 65.4603 19.9775C66.4116 18.7246 67.3397 17.8313 68.2446 17.2976C69.1727 16.7639 70.0196 16.4971 70.7853 16.4971C72.2935 16.4971 73.0476 17.2512 73.0476 18.7594C73.0476 19.6643 72.7923 21.3001 72.2819 23.6668C71.841 25.6854 71.6206 27.0195 71.6206 27.6692C71.6206 28.5973 71.957 29.0614 72.6299 29.0614C73.094 29.0614 73.6392 28.7829 74.2657 28.2261C74.9154 27.646 75.7739 26.7179 76.8412 25.4418C77.1196 25.1169 77.4329 24.9545 77.7809 24.9545ZM67.4441 3.4456C67.0264 3.4456 66.5624 4.04887 66.0519 5.25541C65.5415 6.43875 65.0426 8.05134 64.5554 10.0932C64.0913 12.1118 63.7085 14.3161 63.4068 16.7059C64.8454 15.0121 66.0287 13.1675 66.9568 11.1721C67.9082 9.17667 68.3838 7.36686 68.3838 5.74267C68.3838 5.00018 68.3026 4.43172 68.1402 4.03727C67.9778 3.64282 67.7457 3.4456 67.4441 3.4456Z" fill="#DEDEDE"/>
<path d="M60.3247 24.9545C60.6264 24.9545 60.8584 25.0937 61.0208 25.3721C61.2064 25.6505 61.2992 26.0334 61.2992 26.5206C61.2992 27.4487 61.0788 28.168 60.638 28.6785C59.7795 29.7226 58.5613 30.6855 56.9835 31.5672C55.429 32.4489 53.7584 32.8898 51.9717 32.8898C49.5355 32.8898 47.6444 32.2285 46.2987 30.9059C44.9529 29.5834 44.2801 27.7736 44.2801 25.4765C44.2801 23.8755 44.6165 22.3906 45.2894 21.0216C45.9623 19.6294 46.8904 18.5273 48.0737 17.7152C49.2802 16.9031 50.6376 16.4971 52.1458 16.4971C53.4915 16.4971 54.5705 16.9031 55.3825 17.7152C56.1946 18.5041 56.6007 19.583 56.6007 20.952C56.6007 22.553 56.0206 23.9335 54.8605 25.0937C53.7236 26.2306 51.7861 27.1355 49.0482 27.8084C49.6283 28.8757 50.7304 29.4094 52.3546 29.4094C53.3987 29.4094 54.5821 29.0497 55.9046 28.3304C57.2504 27.588 58.4105 26.625 59.385 25.4417C59.6634 25.1169 59.9767 24.9545 60.3247 24.9545ZM51.5541 19.9079C50.6956 19.9079 49.9647 20.4067 49.3614 21.4044C48.7814 22.4022 48.4913 23.6087 48.4913 25.0241V25.0937C49.8603 24.7688 50.9392 24.2816 51.7281 23.6319C52.517 22.9822 52.9115 22.2281 52.9115 21.3696C52.9115 20.9288 52.7838 20.5807 52.5286 20.3255C52.2966 20.0471 51.9718 19.9079 51.5541 19.9079Z" fill="#DEDEDE"/>
<path d="M46.6609 24.9545C46.9625 24.9545 47.1945 25.0937 47.357 25.3721C47.5426 25.6505 47.6354 26.0334 47.6354 26.5206C47.6354 27.4487 47.415 28.168 46.9741 28.6785C46.1156 29.7226 44.8975 30.6855 43.3197 31.5672C41.7651 32.4489 40.0945 32.8898 38.3079 32.8898C35.8716 32.8898 33.9806 32.2285 32.6348 30.9059C31.2891 29.5834 30.6162 27.7736 30.6162 25.4765C30.6162 23.8755 30.9527 22.3906 31.6255 21.0216C32.2984 19.6294 33.2265 18.5273 34.4099 17.7152C35.6164 16.9031 36.9737 16.4971 38.4819 16.4971C39.8277 16.4971 40.9066 16.9031 41.7187 17.7152C42.5308 18.5041 42.9368 19.583 42.9368 20.952C42.9368 22.553 42.3568 23.9335 41.1966 25.0937C40.0597 26.2306 38.1223 27.1355 35.3844 27.8084C35.9644 28.8757 37.0666 29.4094 38.6907 29.4094C39.7349 29.4094 40.9182 29.0497 42.2408 28.3304C43.5865 27.588 44.7467 26.625 45.7212 25.4417C45.9996 25.1169 46.3128 24.9545 46.6609 24.9545ZM37.8903 19.9079C37.0318 19.9079 36.3009 20.4067 35.6976 21.4044C35.1175 22.4022 34.8275 23.6087 34.8275 25.0241V25.0937C36.1965 24.7688 37.2754 24.2816 38.0643 23.6319C38.8532 22.9822 39.2476 22.2281 39.2476 21.3696C39.2476 20.9288 39.12 20.5807 38.8648 20.3255C38.6327 20.0471 38.3079 19.9079 37.8903 19.9079Z" fill="#DEDEDE"/>
<path d="M17.7698 32.8898C16.8881 32.8898 16.2617 32.4257 15.8904 31.4976C15.5424 30.5695 15.3683 29.0845 15.3683 27.0427C15.3683 24.0263 15.7976 21.1608 16.6561 18.4461C16.8649 17.7732 17.2014 17.286 17.6654 16.9843C18.1527 16.6595 18.8255 16.4971 19.684 16.4971C20.1481 16.4971 20.4729 16.5551 20.6586 16.6711C20.8442 16.7871 20.937 17.0075 20.937 17.3324C20.937 17.7036 20.763 18.5389 20.4149 19.8383C20.1829 20.7664 19.9973 21.5785 19.8581 22.2745C19.7189 22.9706 19.6028 23.8291 19.51 24.85C20.2757 22.8546 21.1342 21.2304 22.0855 19.9775C23.0368 18.7245 23.9649 17.8312 24.8699 17.2976C25.798 16.7639 26.6449 16.4971 27.4105 16.4971C28.9187 16.4971 29.6728 17.2512 29.6728 18.7593C29.6728 19.061 29.5684 19.7919 29.3596 20.952C29.174 21.8801 29.0811 22.4602 29.0811 22.6922C29.0811 23.5043 29.3712 23.9103 29.9512 23.9103C30.6009 23.9103 31.4362 23.3999 32.4571 22.379C32.7588 22.0773 33.072 21.9265 33.3968 21.9265C33.6985 21.9265 33.9305 22.0657 34.0929 22.3441C34.2785 22.5994 34.3714 22.9474 34.3714 23.3883C34.3714 24.2468 34.1393 24.9196 33.6753 25.4069C33.0256 26.0798 32.2599 26.6598 31.3782 27.1471C30.5197 27.6112 29.6032 27.8432 28.6287 27.8432C27.3989 27.8432 26.4592 27.5299 25.8096 26.9035C25.1831 26.277 24.8699 25.4301 24.8699 24.3628C24.8699 24.0147 24.9047 23.6667 24.9743 23.3187C25.0207 22.8546 25.0439 22.5414 25.0439 22.379C25.0439 22.0077 24.9163 21.8221 24.661 21.8221C24.313 21.8221 23.8489 22.2165 23.2689 23.0054C22.712 23.7711 22.1551 24.792 21.5983 26.0682C21.0414 27.3443 20.589 28.6901 20.2409 30.1054C19.9857 31.196 19.684 31.9385 19.336 32.3329C19.0112 32.7041 18.4891 32.8898 17.7698 32.8898Z" fill="#DEDEDE"/>
<path d="M17.1584 24.9556C17.46 24.9556 17.6921 25.0948 17.8545 25.3733C18.0401 25.6517 18.1329 26.0346 18.1329 26.5218C18.1329 27.4499 17.9125 28.1692 17.4716 28.6797C16.4739 29.9094 15.3834 30.9187 14.2 31.7076C13.0167 32.4965 11.6594 32.891 10.128 32.891C5.39463 32.891 3.02795 29.5614 3.02795 22.9022C3.02795 21.8813 3.06276 20.8488 3.13236 19.8046H1.77501C1.07893 19.8046 0.60327 19.677 0.34804 19.4218C0.116013 19.1666 0 18.7605 0 18.2037C0 16.9043 0.522061 16.2546 1.56618 16.2546H3.55001C3.94446 13.7023 4.54773 11.3705 5.35982 9.25901C6.17192 7.14757 7.14643 5.46537 8.28336 4.21242C9.4435 2.95948 10.6848 2.33301 12.0074 2.33301C12.9819 2.33301 13.7476 2.76226 14.3045 3.62076C14.8613 4.47926 15.1398 5.55818 15.1398 6.85753C15.1398 10.454 13.6316 13.5863 10.6152 16.2546H14.5133C14.8845 16.2546 15.1514 16.3358 15.3138 16.4983C15.4762 16.6607 15.5574 16.9623 15.5574 17.4032C15.5574 19.0041 14.2465 19.8046 11.6245 19.8046H7.37846C7.33205 20.9648 7.30885 21.8697 7.30885 22.5194C7.30885 24.9324 7.58728 26.6262 8.14415 27.6007C8.72421 28.5753 9.62912 29.0625 10.8589 29.0625C11.8566 29.0625 12.7383 28.7609 13.504 28.1576C14.2697 27.5543 15.1746 26.6494 16.2187 25.4429C16.4971 25.1181 16.8104 24.9556 17.1584 24.9556ZM11.0677 5.6742C10.7196 5.6742 10.3252 6.11505 9.88435 6.99675C9.4667 7.85525 9.06065 9.06179 8.66621 10.6164C8.29496 12.1477 7.98173 13.8531 7.7265 15.7326C9.09546 14.5492 10.1164 13.2267 10.7893 11.7649C11.4853 10.2799 11.8334 8.93417 11.8334 7.72763C11.8334 6.35868 11.5781 5.6742 11.0677 5.6742Z" fill="#DEDEDE"/>
</svg>

<svg xmlns="http://www.w3.org/2000/svg" width="136" height="34" fill="none"><path fill="#DEDEDE" d="M135.025 25.999q.453 0 .696.417.279.418.279 1.149 0 1.252-.592 2.158a6.74 6.74 0 0 1-2.576 2.331q-1.566.836-3.758.836-3.341 0-5.186-1.984-1.845-2.019-1.845-5.43 0-2.4 1.01-4.454 1.008-2.09 2.784-3.307 1.81-1.218 4.072-1.218 2.019 0 3.237 1.218 1.218 1.184 1.218 3.237 0 2.401-1.74 4.142-1.706 1.705-5.847 2.714.834 1.601 2.819 1.601 1.426 0 2.332-.66.939-.663 2.157-2.228.418-.522.94-.522m-5.708-6.091q-1.287 0-2.192 1.496-.87 1.497-.871 3.62v.07q2.053-.487 3.237-1.462t1.184-2.262q0-.662-.383-1.044-.348-.418-.975-.418"/><path fill="#DEDEDE" d="M114.187 33.656q-1.809 0-2.784-.836-.94-.835-.94-1.88 0-.905.661-1.565.662-.662 1.949-.662.453 0 1.045.105l.939.104a4.3 4.3 0 0 0-.417-1.705 7.4 7.4 0 0 0-.905-1.532 19 19 0 0 0-1.044-1.322q-1.08 2.054-2.158 3.41a24 24 0 0 1-2.297 2.576q-.627.627-1.323.627-.557 0-.905-.383a1.53 1.53 0 0 1-.348-1.01q0-.696.487-1.287l.453-.557q1.914-2.367 2.889-3.898.591-1.01 1.392-2.68a102 102 0 0 0 1.566-3.515q.661-1.532 2.749-1.532.975 0 1.358.174t.383.557q0 .21-.14.661-.138.453-.382.905-.627 1.253-.627 2.123 0 .522.348 1.149.383.627 1.149 1.566 1.113 1.462 1.67 2.506.592 1.01.592 2.227 0 .349-.07.975 1.705-.661 4.003-3.515.417-.488.94-.488.452 0 .696.418.278.418.278 1.149 0 1.322-.661 2.157-1.74 2.159-3.341 2.959-1.567.765-3.898.835-1.393 1.185-3.307 1.184"/><path fill="#DEDEDE" d="M95.188 32.89q-1.566 0-2.576-1.427-.975-1.462-.974-3.62 0-2.61.348-4.768.348-2.193 1.148-4.629.348-1.044.975-1.497.626-.452 1.984-.452.765 0 1.044.244.313.244.313.73 0 .28-.383 1.88a36 36 0 0 0-.557 2.332q-.696 3.654-.696 4.872 0 .732.174 1.045.174.278.557.278.522 0 1.288-1.044.8-1.044 1.67-3.167.906-2.124 1.741-5.22.278-1.046.835-1.497.591-.453 1.74-.453.8 0 1.114.209.313.174.313.696 0 .87-.87 4.768-.975 4.455-.975 5.5 0 .66.279 1.043a.89.89 0 0 0 .731.348q.696 0 1.636-.835.974-.87 2.575-2.784.418-.488.94-.488.451 0 .696.418.278.418.278 1.149 0 1.392-.661 2.157-1.497 1.846-3.237 3.028-1.705 1.185-3.898 1.184-1.67 0-2.471-1.288-.766-1.287-.766-3.62-.591 2.367-1.775 3.655-1.182 1.253-2.54 1.253"/><path fill="#DEDEDE" d="M93.684 22.03q.453 0 .696.453.244.453.244 1.148 0 1.672-1.01 1.984-2.088.732-4.594.836-.66 2.924-2.61 4.698-1.949 1.74-4.42 1.74-2.088 0-3.585-1.009a6.46 6.46 0 0 1-2.227-2.68q-.766-1.67-.766-3.62 0-2.645 1.01-4.698 1.008-2.088 2.784-3.237a6.94 6.94 0 0 1 3.933-1.183q2.644 0 4.246 1.845 1.635 1.81 1.914 4.49 1.636-.105 3.898-.697.279-.07.487-.07M82.27 29.2q1.113 0 1.914-.905.835-.904 1.113-2.61a4.94 4.94 0 0 1-1.67-1.914 5.8 5.8 0 0 1-.557-2.506q0-.557.104-1.114H83q-1.392 0-2.331 1.358-.905 1.322-.905 3.758 0 1.915.73 2.924.766 1.01 1.776 1.01"/><path fill="#DEDEDE" d="M77.78 24.955q.454 0 .697.417.279.418.278 1.149 0 1.392-.66 2.157-1.602 1.846-3.307 3.028-1.67 1.184-3.829 1.184-1.774 0-2.68-1.01-.904-1.044-.904-2.993 0-.975.487-3.48.452-2.193.452-3.028 0-.557-.383-.557-.452 0-1.287 1.184-.836 1.148-1.671 3.062a25 25 0 0 0-1.357 4.037q-.662 2.785-3.272 2.785-1.044 0-1.392-.731-.313-.765-.313-2.715 0-1.113.034-1.775l.035-2.784q0-5.36 1.08-11.172Q60.9 7.9 63.023 3.968 65.183 0 68.175 0q1.6 0 2.576 1.392 1.008 1.357 1.009 3.55 0 3.516-2.054 7.309-2.053 3.759-6.682 8.805a65 65 0 0 0-.104 3.724q1.148-2.958 2.54-4.803 1.428-1.878 2.785-2.68 1.392-.8 2.54-.8 2.263 0 2.263 2.262 0 1.358-.766 4.908-.661 3.027-.661 4.002 0 1.392 1.009 1.392.697 0 1.636-.835.975-.87 2.575-2.784.418-.488.94-.488M67.445 3.444q-.627 0-1.392 1.81-.766 1.776-1.497 4.838a67 67 0 0 0-1.148 6.613 24.4 24.4 0 0 0 3.55-5.534q1.427-2.992 1.427-5.43 0-1.113-.244-1.705-.243-.591-.696-.591"/><path fill="#DEDEDE" d="M60.325 24.955q.452 0 .696.417.278.418.278 1.149 0 1.392-.661 2.157-1.288 1.567-3.654 2.89a10 10 0 0 1-5.012 1.322q-3.655 0-5.673-1.984t-2.019-5.43q0-2.4 1.01-4.454 1.008-2.09 2.784-3.307 1.81-1.218 4.072-1.218 2.02 0 3.236 1.218 1.22 1.184 1.219 3.237 0 2.401-1.74 4.142-1.706 1.705-5.813 2.714.87 1.601 3.307 1.601 1.566 0 3.55-1.079a11.9 11.9 0 0 0 3.48-2.888q.417-.488.94-.488m-8.77-5.047q-1.289 0-2.194 1.496-.87 1.497-.87 3.62v.07q2.054-.487 3.237-1.462t1.183-2.262q0-.662-.382-1.044-.348-.418-.975-.418"/><path fill="#DEDEDE" d="M46.66 24.955q.454 0 .697.417.279.418.278 1.149 0 1.392-.66 2.157-1.29 1.567-3.655 2.89a10 10 0 0 1-5.012 1.322q-3.654 0-5.673-1.984t-2.019-5.43q0-2.4 1.01-4.454 1.008-2.09 2.784-3.307 1.81-1.218 4.072-1.218 2.019 0 3.237 1.218 1.218 1.184 1.218 3.237 0 2.401-1.74 4.142-1.706 1.705-5.813 2.714.87 1.601 3.307 1.601 1.566 0 3.55-1.079a11.9 11.9 0 0 0 3.48-2.888q.418-.488.94-.488m-8.77-5.047q-1.288 0-2.192 1.496-.87 1.497-.87 3.62v.07q2.052-.487 3.236-1.462t1.184-2.262q0-.662-.383-1.044-.348-.418-.975-.418"/><path fill="#DEDEDE" d="M17.77 32.89q-1.323 0-1.88-1.392-.522-1.393-.522-4.455 0-4.525 1.288-8.597.313-1.01 1.01-1.462.73-.487 2.018-.487.696 0 .975.174.278.175.278.661 0 .558-.522 2.506-.348 1.392-.557 2.436t-.348 2.576q1.149-2.993 2.575-4.873 1.428-1.88 2.785-2.68 1.392-.8 2.54-.8 2.263 0 2.263 2.262 0 .453-.313 2.193-.279 1.392-.279 1.74 0 1.218.87 1.218.975 0 2.506-1.531.453-.453.94-.453.453 0 .696.418.278.383.278 1.044 0 1.289-.696 2.019a9.7 9.7 0 0 1-2.297 1.74 5.7 5.7 0 0 1-2.75.696q-1.845 0-2.818-.94-.94-.94-.94-2.54 0-.522.104-1.044.07-.697.07-.94 0-.557-.383-.557-.522 0-1.392 1.183-.836 1.149-1.67 3.063a25 25 0 0 0-1.358 4.037q-.383 1.637-.905 2.228-.488.557-1.566.557"/><path fill="#DEDEDE" d="M17.158 24.956q.453 0 .697.417.278.418.278 1.149 0 1.392-.661 2.158-1.497 1.845-3.272 3.028-1.774 1.182-4.072 1.183-7.1 0-7.1-9.989 0-1.53.104-3.097H1.775q-1.044 0-1.427-.383Q0 19.039 0 18.204q0-1.95 1.566-1.95H3.55q.591-3.828 1.81-6.995 1.218-3.167 2.923-5.047 1.74-1.88 3.724-1.879 1.462 0 2.298 1.288.835 1.287.835 3.237 0 5.394-4.525 9.397h3.898q.557 0 .8.243.244.244.244.905 0 2.402-3.933 2.402H7.378a72 72 0 0 0-.07 2.714q.001 3.62.836 5.082.87 1.461 2.715 1.462 1.497 0 2.645-.905 1.148-.906 2.715-2.715.417-.487.94-.487m-6.09-19.282q-.522 0-1.184 1.323-.626 1.287-1.218 3.62a51 51 0 0 0-.94 5.116q2.054-1.775 3.063-3.968 1.044-2.227 1.044-4.037 0-2.054-.765-2.054"/></svg>
